X: 56
T: Jiao nong changge nong jiu chang
%%abc-version 2.0
%%abcx-abcm2ps-target-version 5.9.1 (29 Sep 2008)
%%abc-creator hum2abc beta
%%abcx-conversion-date 2013/10/02 07:44:27
%%abc-edited-by Helmut Schaffrath
%%humdrum-veritas 4290291403
%%humdrum-veritas-data 2568193567
%%continueall 1
%%barnumbers 0
L: 1/4
M: 2/2
K: Eb
c/ e/Fc/ e/c [I:setbarnb 1]| 
cFB2 | 
F2c/ e/f | 
f2B2 | 
cFGF | 
ec/ e<fe/ | 
c/ e/fe/ f/c | 
B4 | 
FFc/ e/c | 
cFB2 | 
F2c/ e/f | 
f2B2 | 
cFGF | 
ec/ e<fe/ | 
c/ e/fe/ f/c | 
B4 |]  



